frontend/css/icons/education.svg

<?xml version="1.0" encoding="UTF-8" standalone="no"?>
<svg viewBox="0 0 32 32" version="1.1" xmlns="http://www.w3.org/2000/svg" xmlns:xlink="http://www.w3.org/1999/xlink">
    <!-- Generator: Sketch 46.1 (44463) - http://www.bohemiancoding.com/sketch -->
    <title>icons/education</title>
    <desc>Created with Sketch.</desc>
    <defs></defs>
    <g id="Symbols" stroke="none" stroke-width="1" fill="none" fill-rule="evenodd">
        <g id="icons/education">
            <g id="Group-8">
                <circle id="Oval-2-Copy-2" fill="#FAB400" cx="16" cy="16" r="16"></circle>
                <path d="M25.032,21.6170218 C20.568,18.8103551 16.7053333,21.3823551 16.7053333,21.8223551 L16.7053333,12.4676885 C16.7053333,10.8050218 18.9173333,9.90768847 21.6466667,9.90768847 C22.9586667,9.90768847 24.148,10.2183551 25.032,10.7263551 L25.032,21.6170218 Z M15.36,21.8223551 C15.36,21.3823551 11.4946667,18.8103551 7.03066667,21.6170218 L7.03066667,10.7263551 C7.91466667,10.2183551 9.104,9.90768847 10.416,9.90768847 C13.148,9.90768847 15.36,10.8050218 15.36,12.4676885 L15.36,21.8223551 Z M16.0986667,10.3956885 C15.4066667,9.73435514 11.4346667,7.4370218 6,9.77835514 L6,11.4516885 L6,22.6210218 L14.2333333,22.6210218 C14.516,22.8650218 15.188,23.0356885 15.9746667,23.0356885 C16.76,23.0356885 17.4333333,22.8650218 17.7173333,22.6210218 L26,22.6210218 L26,11.4516885 L26,9.77835514 C20.788,7.4810218 16.624,9.91168847 16.0986667,10.3956885 L16.0986667,10.3956885 Z" id="Fill-1" fill="#FFFFFF"></path>
            </g>
        </g>
    </g>
</svg>

<!-- Generated by IcoMoon.io -->
<svg version="1.1" xmlns="http://www.w3.org/2000/svg" viewBox="0 0 32 32">
<title>education</title>
<path d="M16 32c-8.837 0-16-7.163-16-16s7.163-16 16-16c8.837 0 16 7.163 16 16s-7.163 16-16 16zM25.032 21.617c-4.464-2.807-8.327-0.235-8.327 0.205v-9.355c0-1.663 2.212-2.56 4.941-2.56 1.312 0 2.501 0.311 3.385 0.819v10.891zM15.36 21.822c0-0.44-3.865-3.012-8.329-0.205v-10.891c0.884-0.508 2.073-0.819 3.385-0.819 2.732 0 4.944 0.897 4.944 2.56v9.355zM16.099 10.396c-0.692-0.661-4.664-2.959-10.099-0.617v12.843h8.233c0.283 0.244 0.955 0.415 1.741 0.415 0.785 0 1.459-0.171 1.743-0.415h8.283v-12.843c-5.212-2.297-9.376 0.133-9.901 0.617v0z"></path>
</svg>
